icon/fa/bomb.svg

<svg xmlns="http://www.w3.org/2000/svg" viewBox="0 0 512 512"><!--! Font Awesome Free 6.1.2 by @fontawesome - https://fontawesome.com License - https://fontawesome.com/license/free (Icons: CC BY 4.0, Fonts: SIL OFL 1.1, Code: MIT License) Copyright 2022 Fonticons, Inc.--><path d="m459.1 52.39 45.7 16.83c4.2 1.56 7.2 5.9 7.2 10.45 0 4.48-3.9 8.71-7.2 10.16l-45.7 16.87-16.5 45.8c-1.5 4.4-5.9 7.5-10.5 7.5s-8.9-3.1-10.4-7.5l-16.8-45.8-45.7-16.87c-4.2-1.45-7.2-5.68-7.2-10.16-.9-4.55 2.1-8.89 7.2-10.45l46-16.83 16.5-45.842C423.6 2.623 427.8 0 432.1 0c4.4 0 8.6 2.623 10.5 6.548l16.5 45.842zM406.6 185.4c12.5 12.5 12.5 32.7 0 45.2l-2.8 2.9c7.9 22 12.2 45.8 12.2 69.6C416 418.9 322.9 512 208 512 93.12 512 0 418.9 0 303.1c0-114 93.12-208 208-208 24.7 0 48.5 5.2 70.5 13.1l2.9-2.8c12.5-12.52 32.7-12.52 45.2 0l80 80zM207.1 192c9.7 0 16-7.2 16-16s-6.3-16-16-16h-8c-74.2 0-136 60.9-136 136v8c0 8.8 8.06 16 16 16 9.74 0 16-7.2 16-16v-8c0-57.4 47.5-104 104-104h8z"/></svg>

<svg xmlns="http://www.w3.org/2000/svg" viewBox="0 0 512 512" height="1em" width="1em">
<!--! Font Awesome Free 6.1.2 by @fontawesome - https://fontawesome.com License - https://fontawesome.com/license/free (Icons: CC BY 4.0, Fonts: SIL OFL 1.1, Code: MIT License) Copyright 2022 Fonticons, Inc.-->
  <path d="M459.1 52.39L504.8 69.22C509 70.78 512 75.12 512 79.67C512 84.15 508.1 88.38 504.8 89.83L459.1 106.7L442.6 152.5C441.1 156.9 436.7 160 432.1 160C427.5 160 423.2 156.9 421.7 152.5L404.9 106.7L359.2 89.83C355 88.38 352 84.15 352 79.67C351.1 75.12 354.1 70.78 359.2 69.22L405.2 52.39L421.7 6.548C423.6 2.623 427.8 0 432.1 0C436.5 0 440.7 2.623 442.6 6.548L459.1 52.39zM406.6 185.4C419.1 197.9 419.1 218.1 406.6 230.6L403.8 233.5C411.7 255.5 416 279.3 416 303.1C416 418.9 322.9 512 208 512C93.12 512 0 418.9 0 303.1C0 189.1 93.12 95.1 208 95.1C232.7 95.1 256.5 100.3 278.5 108.2L281.4 105.4C293.9 92.88 314.1 92.88 326.6 105.4L406.6 185.4zM207.1 192C216.8 192 223.1 184.8 223.1 176C223.1 167.2 216.8 160 207.1 160H199.1C124.9 160 63.1 220.9 63.1 296V304C63.1 312.8 71.16 320 79.1 320C88.84 320 95.1 312.8 95.1 304V296C95.1 238.6 142.6 192 199.1 192H207.1z"/>
</svg>
